!!!!SEGMENT: pl-cz--i-167--002_zebrowski-marcin-jozef--sonata-pro-processione-in-a.krn
!!!cenid: 17xx:2316
!!!COM: Żebrowski, Marcin Józef
!!!COM-rismID: pe30020322
!!!CDT: 1702-1770/06/29
!!!CNT: Polish
!!!OTL: Sonata pro processione in A
!!!PDT:
!!!AGN:
!!!SMS-siglum: PL-CZ
!!!SMS-shelfmark: I-167
!!!SMS-shelfwork: 002 W
!!!SMS-variant:
!!!SMS-altvar:
!!!NIFC-rismSourceID: 300033520
!!!NIFC-islandoraID: pl-cz:963
!!!URL-pdf-islandora: https://repozytorium.nifc.pl/islandora/object/pl-cz%3A963/datastream/PDF/view
!!!URL-scan: https://polish.musicsources.pl/pl/lokalizacje/galeria/rekopisy/570 @EN{Scan on Polish Music Herritage in Open Access Website} @PL{Skany w portalu Dziedzictwo Muzyki Polskiej w otwartym dostępie}
!!!ONB-nifc: UWAGA: w zbiorze 2 Sonaty: 1. in e, 2. in A. Partia organów na skanach 0002 i 0005
!!!AIN: 1 clrno 1 oboe 1 organ 1 violn
!!!key: A
**kern	**fba	**kern	**dynam	**kern	**kern
*part4	*part4	*part3	*part3	*part2	*part1
*staff4	*	*staff3	*	*staff2	*staff1
*I"Organo	*	*I"Violino Primo.	*	*I"Clarino Primo ex a	*I"Hoboe Secondo.
*I'org	*	*I'vl I	*	*I'clno I	*I'ob II
*ICklav	*	*ICstr	*	*ICbras	*ICww
*Iorgan	*	*Ivioln	*	*Iclrno	*Ioboe
*clefF4	*	*clefG2	*	*clefG2	*clefG2
*A:	*	*A:	*	*A:	*A:
*	*	*	*	*ITrd2c3	*
*k[f#c#g#]	*	*k[f#c#g#]	*	*k[f#c#g#]	*k[f#c#g#]
*M3/8	*	*M3/8	*	*M3/8	*M3/8
=1	=1	=1	=1	=1	=1
!LO:TX:a:B:t=Andante.	!	!LO:TX:a:B:t=Andante.	!	!LO:TX:a:B:t=Andante	!LO:TX:a:B:t=Andante.
8AA/L	.	(8ee\L	.	8ee\L	(8cc#\L
8BB/	6	8dd\)	.	8dd\	8b\)
16C#/L	6	8cc#`\J	.	8cc#\J	8a`\J
16D/JJ	.	.	.	.	.
=2	=2	=2	=2	=2	=2
8E\L	.	8b\L	.	8b\L	8g#/L
8AA/J	.	8cc#\J	.	8cc#\J	8a/J
8r	.	8r	.	16e/LL	8r
.	.	.	.	16e/JJ	.
=3	=3	=3	=3	=3	=3
8E\L	7	(8dd\L	.	4e/	(8g#/L
8E\	6 4	8cc#\)	.	.	8a/)
8E\J	5 3	8b`\J	.	8r	8b`/J
=4	=4	=4	=4	=4	=4
8E\L	6 4	(16cc#\LL	.	8r	(16a/LL
.	.	16dd\JJ	.	.	16b/JJ)
8E\	.	4ee\)	.	8ee\L	4cc#\
8E\J	.	.	.	8ee\J	.
=5	=5	=5	=5	=5	=5
8E\L	7 3	(8b\L	.	8dd\L	(8b/L
8E\	6 4	8cc#\)	.	8cc#\	8a/)
8E\J	5 3	8dd`\J	.	8b\J	8g#`/J
=6	=6	=6	=6	=6	=6
!	!	!LO:TX:t=P:problem= problem klamry łukowej	!	!	!
8AA/L	.	24cc#\LL	.	8cc#\L	8a`/
.	.	24b\	.	.	.
.	.	24a\JJ	.	.	.
!	!	!LO:TX:a:t=t	!	!	!LO:TX:a:t=t
8AA/	6 4	4ff#\	.	8A/	4dd\
8AA/J	.	.	.	8A/J	.
=7	=7	=7	=7	=7	=7
!	!	!LO:TX:t=P:problem= problem klamry łukowej	!	!	!
8AA/L	x 5 3	24ee\LL	.	8A/L	8cc#`\
.	.	24dd\	.	.	.
.	.	24cc#\JJ	.	.	.
!	!	!	!	!	!LO:TX:a:t=t
8AA/	7 4 2	4dd\	.	8A/	4b/
8AA/J	.	.	.	8A/J	.
=8	=8	=8	=8	=8	=8
!	!	!LO:TX:t=P:problem= problem klamry łukowej	!	!	!
8AA/L	8 5 3	24cc#\LL	.	8A/L	8cc#`\
.	.	24b\	.	.	.
.	.	24a\JJ	.	.	.
!	!	!	!	!	!LO:TX:a:t=t
8AA/	x 6 4	16ff#\LL	.	8A/	4dd\
.	.	16ff#\JJ	.	.	.
!	!	!LO:TX:a:t=t.	!	!	!
8AA/J	.	8ff#\	.	8A/J	.
=9	=9	=9	=9	=9	=9
!	!	!LO:TX:t=P:problem= problem klamry łukowej	!	!	!
8AA/L	x 5 3	24ee\LL	.	8A/L	8cc#`\
.	.	24dd\	.	.	.
.	.	24cc#\JJ	.	.	.
!	!	!	!	!	!LO:TX:a:t=t
8AA/	7 4 2	16dd\LL	.	8A/	4b/
.	.	16dd\JJ	.	.	.
!	!	!LO:TX:a:t=t	!	!	!
8AA/J	.	8dd\	.	8A/J	.
=10	=10	=10	=10	=10	=10
!	!	!LO:TX:t=P:problem= problem klamry łukowej	!	!	!
8A\L	8 3	24cc#\LL	.	8A/	8cc#\
.	.	24b\	.	.	.
.	.	24a\JJ	.	.	.
8G#\	6 5	8.dd\L	.	8r	8r
8E\J	7	.	.	8r	8r
.	.	16b\Jk	.	.	.
=11	=11	=11	=11	=11	=11
!	!	!LO:TX:t=P:problem= problem klamry łukowej	!	!LO:TX:a:t=7.	!LO:TX:a:t=3.
8A\L	.	24cc#\LL	.	4.r	4.r
.	.	24dd\	.	.	.
.	.	24ee\JJ	.	.	.
.	.	8qqee/	.	.	.
8G#\	6 5	8.dd\L	.	.	.
8E\J	7	.	.	.	.
.	.	16b\Jk	.	.	.
!LO:LB:g=original	!	!LO:LB:g=original	!	!	!
=12	=12	=12	=12	=12	=12
8A\L	.	(16cc#\LL	.	4.r	4.r
.	.	16aa\JJ)	.	.	.
8F#\	5	8.aa\L	.	.	.
8D#X\J	7 5	.	.	.	.
.	.	16cc#\Jk	.	.	.
=13	=13	=13	=13	=13	=13
!	!	!LO:TX:a:t=t	!	!	!
.	.	8qqdd/	.	.	.
8r	6 4	8cc#\L	.	4.r	4.r
8E\L	5 3	8b\J	.	.	.
8F#\J	.	8r	.	.	.
=14	=14	=14	=14	=14	=14
!	!	!LO:TX:a:t=4.	!	!	!
8G#\L	6	4.r	.	4.r	8r
!	!	!	!	!	!LO:TX:b:t=Solo.
8G#\	.	.	.	.	8ee`\L
8G#\J	.	.	.	.	8ee`\J
=15	=15	=15	=15	=15	=15
8A\L	6 5	4.r	.	4.r	[4.ee\
8A\	.	.	.	.	.
8A\J	.	.	.	.	.
!	!	!	!	!	!LO:LB:g=original
=16	=16	=16	=16	=16	=16
!	!	!	!	!	!LO:TX:a:t=t
8A#X\L	7 5	4.r	.	4.r	4.ee\_
8A#\	.	.	.	.	.
8A#\J	.	.	.	.	.
=17	=17	=17	=17	=17	=17
8B\	6 4	4.r	.	4.r	16ee\LL]
.	.	.	.	.	32dd#X\L
.	.	.	.	.	32cc#\JJJ
8r	5 #	.	.	.	16b/LL
.	.	.	.	.	16a/
8D#X\	6 5	.	.	.	16g#/
.	.	.	.	.	16f#/JJ
=18	=18	=18	=18	=18	=18
4E\	5:6 3:4	16g#\LL	.	8b\L	16e/LL
.	.	16qqb/	.	.	.
.	.	16ee\	.	.	16g#/JJ
.	.	16a\	.	8cc#\	8a/L
.	.	16qqcc#/	.	.	.
.	.	16ee\	.	.	.
8E\	5 3	16g#\	.	8b\J	8g#/J
.	.	16qqb/	.	.	.
.	.	16ee\JJ	.	.	.
=19	=19	=19	=19	=19	=19
!	!	!	!	!LO:TX:a:t=1.	!LO:TX:a:t=1.
8A\L	6	16r	.	4.r	4.r
.	.	(16aa\LL	.	.	.
8B\	6 4	16gg#\	.	.	.
.	.	16ff#\	.	.	.
8D/J	7 #	16ee\	.	.	.
.	.	16dd#X\JJ)	.	.	.
=20	=20	=20	=20	=20	=20
4E\	5:6 3:4	16g#\LL	.	8b\L	(8g#/L
.	.	16qqb/	.	.	.
.	.	16ee\	.	.	.
.	.	16a\	.	8cc#\	8a/)
.	.	16qqcc#/	.	.	.
.	.	16ee\	.	.	.
8E\	5 3	16g#\	.	8b\J	8g#`/J
.	.	16qqb/	.	.	.
.	.	16ee\JJ	.	.	.
=21	=21	=21	=21	=21	=21
!	!	!	!	!LO:TX:a:t=1.	!LO:TX:a:t=1.
8A\	6	16r	.	4.r	4.r
.	.	(16cc#/LL	.	.	.
8r	.	16b/	.	.	.
.	.	16a/	.	.	.
8B\	#	16g#/	.	.	.
.	.	16f#/JJ)	.	.	.
!	!	!	!	!LO:LB:g=original	!
=22	=22	=22	=22	=22	=22
8E\L	.	16g#/	.	8r	8g#/L
.	.	8ee\	.	.	.
8F#\	7	.	.	8ee\L	8a/
.	.	8ee\	.	.	.
8G#\J	6	.	.	8ee\J	8b/J
.	.	[16ee\	.	.	.
=23	=23	=23	=23	=23	=23
4A\	.	16ee\LL]	.	4ee\	16cc#\LL
.	.	32dd#X\L	.	.	32b\L
.	.	32cc#\JJJ	.	.	32a\JJJ
.	.	16b/LL	.	.	16g#/LL
.	.	16a/	.	.	16f#/
8r	.	16g#/	.	8r	16e/
.	.	16f#/JJ	.	.	16d#X/JJ
!LO:LB:g=original	!	!	!	!	!
=24	=24	=24	=24	=24	=24
!	!	!LO:TX:t=P:problem= problem klamry łukowej	!	!	!
16.r	.	24g#/LL	.	8ee\	8e/
.	.	24f#/	.	.	.
.	.	24e/JJ	.	.	.
32G#\	6	.	.	.	.
*	*	*custos:e	*	*	*
!	!	!LO:TX:a:t=t	!	!LO:TX:a:t=t	!LO:TX:a:t=t
.	.	8qqe/	.	.	.
!	!	!LO:LB:g=original	!	!	!
8A\L	4 2	4f#/	.	4dd#X\	4d#X/
8B\J	7 #	.	.	.	.
=25	=25	=25	=25	=25	=25
8E\L	.	4e/	.	4ee\	4e/
8BB/	.	.	.	.	.
8EE/J	.	8r	.	8r	8r
=26:|!|:	=26:|!|:	=26:|!|:	=26:|!|:	=26:|!|:	=26:|!|:
!	!	!LO:TX:a:t=4.	!	!LO:TX:a:t=4.	!
4Gn\	6	4.r	.	4.r	4b/
8r	.	.	.	.	8r
=27	=27	=27	=27	=27	=27
8r	.	4.r	.	4.r	8r
8F#\L	7 #	.	.	.	8a#X/L
8F#\J	.	.	.	.	8a#/J
!	!	!	!	!	!LO:LB:g=original
=28	=28	=28	=28	=28	=28
4Gn\	6	4.r	.	4.r	4b/
8r	.	.	.	.	8r
=29	=29	=29	=29	=29	=29
8r	.	4.r	.	4.r	8r
8F#\L	7 #	.	.	.	8a#X/L
8F#\J	.	.	.	.	8a#/J
=30	=30	=30	=30	=30	=30
!	!	!LO:TX:t=P:problem= problem klamry łukowej	!	!	!
8BB/L	.	24dd\LL	.	8r	8b`/
.	.	24cc#\	.	.	.
.	.	24b\JJ	.	.	.
!	!	!	!	!	!LO:TX:a:t=t.
8BB/	n6 4	4ggn\	.	8b\L	4ee\
8BB/J	.	.	.	8b\J	.
=31	=31	=31	=31	=31	=31
!	!	!LO:TX:t=P:problem= problem klamry łukowej	!	!LO:TX:a:t=t	!
8BB/L	5 3	24ff#\LL	.	4.b\	8dd`\
.	.	24ee\	.	.	.
.	.	24dd\JJ	.	.	.
!	!	!	!	!	!LO:TX:a:t=t.
.	.	8qqdd/	.	.	.
8BB/	#7r 2	4ee\	.	.	4cc#\
8BB/J	.	.	.	.	.
=32	=32	=32	=32	=32	=32
!	!	!LO:TX:t=P:problem= problem klamry łukowej	!	!	!
8BB/L	8 3	24dd\LL	.	8r	8dd`\
.	.	24cc#\	.	.	.
.	.	24b\JJ	.	.	.
!	!	!	!	!	!LO:TX:a:t=t.
8BB/	n6 4	16ggn\LL	.	8b\L	4ee\
.	.	16gg\JJ	.	.	.
!	!	!LO:TX:a:t=t	!	!	!
8BB/J	.	8gg\	.	8b\J	.
=33	=33	=33	=33	=33	=33
!	!	!LO:TX:t=P:problem= problem klamry łukowej	!	!LO:TX:a:t=t	!
8BB/L	5 3	24ff#\LL	.	4.b\	8dd`\
.	.	24ee\	.	.	.
.	.	24dd\JJ	.	.	.
!	!	!	!	!	!LO:TX:a:t=t.
8BB/	#7r 2	16ee\LL	.	.	4cc#\
.	.	16ee\JJ	.	.	.
!	!	!LO:TX:a:t=t	!	!	!
8BB/J	.	8ee\	.	.	.
=34	=34	=34	=34	=34	=34
!	!	!LO:TX:t=P:problem= problem klamry łukowej	!	!	!
8B\L	8 3	24dd\LL	.	4b\	8dd\
.	.	24cc#\	.	.	.
.	.	24b\JJ	.	.	.
.	.	8qqff#/	.	.	.
8A#X\	6 5	8.ee\L	.	.	8r
8F#\J	7 #	.	.	8r	8r
.	.	16cc#\Jk	.	.	.
=35	=35	=35	=35	=35	=35
!	!	!LO:TX:t=P:problem= problem klamry łukowej	!	!LO:TX:a:t=3.	!LO:TX:a:t=2.
8B\L	.	24dd\LL	.	4.r	4.r
.	.	24ee\	.	.	.
.	.	24ff#\JJ	.	.	.
.	.	8qqff#/	.	.	.
8A#X\	6 5	8.ee\L	.	.	.
8F#\J	7 #	.	.	.	.
.	.	16cc#\Jk	.	.	.
!LO:LB:g=original	!	!	!	!	!
=36	=36	=36	=36	=36	=36
16B\LL	.	(32dd\LLL	.	4.r	4.r
.	.	32b\JJJ)	.	.	.
16E\JJ	n	32ggn\LLL	.	.	.
.	.	32ee\JJJ	.	.	.
8F#\L	6 4	8dd\L	.	.	.
!	!	!LO:TX:a:t=t.	!	!	!
8FF#/J	5 #	8cc#\J	.	.	.
=37	=37	=37	=37	=37	=37
8BB/	.	4b/	.	4.r	16b\LL
.	.	.	.	.	32dd\L
.	.	.	.	.	32cc#\JJJ
8r	.	.	.	.	16b/LL
.	.	.	.	.	16a/
8D#X/	6 5	8r	.	.	16g#/
.	.	.	.	.	16f#/JJ
=38	=38	=38	=38	=38	=38
*	*	*custos:ee	*	*	*
!	!	!LO:TX:a:t=1.	!	!	!
.	.	.	.	.	8qqf#/
!	!	!LO:N:vis=1	!	!	!
8E\L	#	4.r	.	8r	4e/
8G#\	6 5	.	.	8b\L	.
8E\J	7	.	.	8b\J	8r
!	!	!LO:LB:g=original	!	!	!
=39	=39	=39	=39	=39	=39
!	!	!	!	!	!LO:TX:a:t=1.
*	*	*Xtuplet	*	*	*
8A\L	.	(24ee\LL	.	4cc#\	4.r
.	.	24ff#\)	.	.	.
.	.	24gg#\JJ	.	.	.
8c#\	6	24aa`\LL	.	.	.
.	.	24gg#`\	.	.	.
.	.	24ff#`\JJ	.	.	.
8A\J	.	24ee\LL	.	8r	.
.	.	24dd\	.	.	.
.	.	24cc#\JJ	.	.	.
*	*	*tuplet	*	*	*Xtuplet
=40	=40	=40	=40	=40	=40
!	!	!	!	!	!LO:TX:a:t=solo.
.	.	8qqcc#/	.	.	.
8E\L	.	4b/	.	8r	(24g#/LL
.	.	.	.	.	24a/
.	.	.	.	.	24b/JJ)
8G#\	6 5	.	.	8b\L	24b`\LL
.	.	.	.	.	24dd`\
.	.	.	.	.	24dd`\JJ
8E\J	7	8r	.	8b\J	24dd`\LL
.	.	.	.	.	24cc#`\
.	.	.	.	.	24b`\JJ
!	!	!	!	!	!LO:LB:g=original
*	*	*	*	*	*tuplet
=41	=41	=41	=41	=41	=41
!	!	!LO:TX:a:t=6.	!	!	!
8AA/L	.	4.r	.	4cc#\	8cc#\L
8C#/	6	.	.	.	16.ee\L
.	.	.	.	.	32dd\JJk
!	!	!	!	!	!LO:TX:t=P:problem= problem klamry łukowej
8AA/J	.	.	.	8r	24cc#\LL
.	.	.	.	.	24b\
.	.	.	.	.	24a\JJ
!	!	!	!	!LO:LB:g=original	!
=42	=42	=42	=42	=42	=42
!	!	!	!	!LO:TX:a:t=Solo.	!
8E\	.	4.r	.	8b\	4g#/
8r	.	.	.	4cc#\	.
8D#X\	7 5	.	.	.	8r
=43	=43	=43	=43	=43	=43
!	!	!	!	!LO:TX:t=P:problem= problem klamry łukowej	!LO:TX:a:t=3.
8E\	.	4.r	.	24b\LL	4.r
.	.	.	.	24cc#\	.
.	.	.	.	24dd\JJ	.
.	.	.	.	8qqdd/	.
8r	.	.	.	4cc#\	.
8D#X\	7 3	.	.	.	.
=44	=44	=44	=44	=44	=44
8E\L	.	4.r	.	24b\LL	4.r
.	.	.	.	24cc#\	.
.	.	.	.	24dd\JJ	.
8A\	.	.	.	24cc#\LL	.
.	.	.	.	24dd\	.
.	.	.	.	24ee\JJ	.
8AA/J	.	.	.	24dd\LL	.
.	.	.	.	24dd\	.
.	.	.	.	24cc#\JJ	.
=45	=45	=45	=45	=45	=45
.	.	.	.	8qqdd/	.
4E\	6:5 4:3	4.r	.	8cc#\L	4.r
.	.	.	.	8b\J	.
8F#\	6|	.	.	8r	.
=46	=46	=46	=46	=46	=46
!	!	!	!	!LO:TX:a:t=1.	!
4G#\	6	4.r	.	4.r	8r
.	.	.	.	.	16.e/LL
.	.	.	.	.	32f#/K
8r	.	.	.	.	16.g#/
.	.	.	.	.	32a/JJk
!LO:LB:g=original	!	!	!	!	!
=47	=47	=47	=47	=47	=47
8E\L	7	8ddd\L	.	8dd`\L	(16b`/LL
.	.	.	.	.	16g#/J)
.	.	.	.	.	8qqg#`/
8AA/	.	8ccc#`\J	.	8cc#\J	8a/J
8BB/J	6	8r	.	8r	8r
=48	=48	=48	=48	=48	=48
!	!	!LO:TX:a:t=1.	!	!LO:TX:a:t=Solo.	!LO:TX:a:t=1.
4C#/	6	4.r	.	16.a\LL	4.r
.	.	.	.	32b\K	.
.	.	.	.	16.cc#\	.
.	.	.	.	32dd\K	.
8r	.	.	.	16.ee\	.
.	.	.	.	32ff#\JJk	.
=49	=49	=49	=49	=49	=49
8A\L	n7r	8ggn`\L	.	16ggX\LL	8cc#`\L
.	.	.	.	16ee\J	.
.	.	.	.	8qqee/	.
8D\J	.	8ff#`\J	.	8ff#\J	8dd`\J
32r	.	8r	.	8r	8r
32D\LLL	.	.	.	.	.
32F#\	.	.	.	.	.
32A\JJJ	.	.	.	.	.
=50	=50	=50	=50	=50	=50
!	!	!LO:TX:a:t=2.	!	!LO:TX:a:t=2.	!
8d\L	.	4.r	.	4.r	24r
!	!	!	!	!	!LO:TX:t=P:problem= problem klamry łukowej
.	.	.	.	.	24ff#\LL
.	.	.	.	.	24ee\JJ
8F#\	6	.	.	.	24dd\LL
.	.	.	.	.	24cc#\
.	.	.	.	.	24b\JJ
8D#X\J	6 5	.	.	.	24a/LL
.	.	.	.	.	24g#/
.	.	.	.	.	24f#/JJ
=51	=51	=51	=51	=51	=51
*	*	*	*	*	*Xtuplet
!	!	!	!	!	!LO:TX:a:t=P:problem=mixed beam
8E\L	.	4.r	.	4.r	24g#/LL
.	.	.	.	.	24gg#\
.	.	.	.	.	24ff#\JJ
8G#\	6	.	.	.	24ee\LL
.	.	.	.	.	24dd\
.	.	.	.	.	24cc#\JJ
8E\J	7	.	.	.	24b/LL
.	.	.	.	.	24a/
.	.	.	.	.	24g#/JJ
!	!	!	!	!LO:LB:g=original	!LO:LB:g=original
*	*	*	*	*	*tuplet
=52	=52	=52	=52	=52	=52
!	!	!LO:TX:t=P:problem= problem klamry łukowej	!	!	!
8A\L	.	24cc#\LL	.	8r	8a`/
.	.	24b\	.	.	.
.	.	24a\JJ	.	.	.
!	!	!	!	!	!LO:TX:a:t=t
.	.	8qqa/	.	.	.
8AA/	6 4	4ff#\	.	8A/L	4dd\
8AA/J	.	.	.	8A/J	.
=53	=53	=53	=53	=53	=53
!	!	!LO:TX:t=P:problem= problem klamry łukowej	!	!	!
8AA/L	x 5 3	24ee\LL	.	8A/L	8cc#`\
.	.	24dd\	.	.	.
.	.	24cc#\JJ	.	.	.
!	!	!	!	!	!LO:TX:a:t=t
.	.	8qqcc#/	.	.	.
8AA/	7 4 2	4dd\	.	8A/	4b\
8AA/J	.	.	.	8A/J	.
=54	=54	=54	=54	=54	=54
!	!	!LO:TX:t=P:problem= problem klamry łukowej	!	!	!
8AA/L	8 5 3	24cc#\LL	.	8A/L	8cc#`\
.	.	24b\	.	.	.
.	.	24a\JJ	.	.	.
!	!	!	!	!	!LO:TX:a:t=t
8AA/	x 6 4	16ff#\LL	.	8A/	4dd\
.	.	16ff#\JJ	.	.	.
*	*	*custos:ee	*	*	*
!	!	!LO:TX:a:t=t	!	!	!
8AA/J	.	8ff#\	.	8A/J	.
!	!	!LO:LB:g=original	!	!	!
=55	=55	=55	=55	=55	=55
!	!	!LO:TX:t=P:problem= problem klamry łukowej	!	!	!
8AA/L	x 5 3	24ee\LL	.	8A/L	8cc#`\
.	.	24dd\	.	.	.
.	.	24cc#\JJ	.	.	.
!	!	!	!	!	!
8AA/	7 4 2	16dd\LL	.	8A/	4b`/
.	.	16dd\JJ	.	.	.
!	!	!LO:TX:a:t=t	!	!	!
8AA/J	.	8dd\	.	8A/J	.
=56	=56	=56	=56	=56	=56
!	!	!LO:TX:t=P:problem= problem klamry łukowej	!	!	!
8A\L	8 3	24cc#\LL	.	8cc#\L	8a/L
.	.	24b\	.	.	.
.	.	24a\JJ	.	.	.
.	.	.	.	.	8qqcc#/
8G#\	6 5	8.dd\L	.	8.dd\	8.b/
8E\J	7	.	.	.	.
.	.	16b\Jk	.	16b\Jk	16g#/Jk
!LO:LB:g=original	!	!	!	!	!
=57	=57	=57	=57	=57	=57
!	!	!LO:TX:t=P:problem= problem klamry łukowej	!	!	!LO:TX:t=P:problem= problem klamry łukowej
8A\L	.	24cc#\LL	.	16cc#\LL	24a/LL
.	.	24dd\	.	.	24b/
.	.	.	.	16ee\JJ	.
.	.	24ee\JJ	.	.	24cc#/JJ
.	.	.	.	8qqee/	8qqcc#/
8G#\	6 5	8.dd\L	.	8.dd\L	8.b/L
8E\J	7	.	.	.	.
.	.	16b\Jk	.	16b\Jk	16g#/Jk
=58	=58	=58	=58	=58	=58
!LO:TX:a:t=P:problem=mixed beam	!	!LO:TX:t=P:problem= problem klamry łukowej	!	!	!
8A\L	.	24cc#\LL	.	8cc#\	8a/
.	.	24b\	.	.	.
.	.	24a\JJ	.	.	.
!	!	!LO:TX:a:t=t	!	!LO:TX:a:t=t	!LO:TX:a:t=t
8E\	.	4b/	.	4b\	4g#/
8EE/J	.	.	.	.	.
=59	=59	=59	=59	=59	=59
4AA/	.	16a`\LL	.	4a\	4a/
.	.	(16aa\	.	.	.
!	!	!	!LO:DY:b:t=po&colon;	!	!
.	.	16gg#\	p	.	.
.	.	16ff#\	.	.	.
8r	.	16ee\	.	8r	8r
.	.	16dd\JJ)	.	.	.
=60	=60	=60	=60	=60	=60
4AA/	.	16cc#`\LL	.	4cc#\	4cc#\
.	.	(16ff#\	.	.	.
.	.	16ee\	.	.	.
.	.	16dd\	.	.	.
8r	.	16cc#\	.	8r	8r
.	.	16b\JJ)	.	.	.
=61	=61	=61	=61	=61	=61
!	!	!	!	!LO:TX:a:t=2.	!LO:TX:a:t=2.
16r	.	16a/LL	.	4.r	4.r
16c#`\LL	.	16a`/	.	.	.
!	!	!	!LO:DY:b:t=for	!	!
16G#`\	.	16g#`/	f	.	.
16F#`\	.	16f#`/	.	.	.
16E`\	.	16e`/	.	.	.
16D`\JJ	.	16d`/JJ	.	.	.
=62	=62	=62	=62	=62	=62
16C#`/LL	.	16c#/LL	.	4.r	4.r
16F#`/	.	16f#`/	.	.	.
16E`/	.	16e`/	.	.	.
16D`/	.	16d`/	.	.	.
16C#`/	.	16c#/	.	.	.
*	*	*custos:c	*	*	*
16BB`/JJ	.	16B/JJ	.	.	.
!	!	!LO:LB:g=original	!	!	!
=63	=63	=63	=63	=63	=63
*	*	*^	*	*	*
4AA/	5:6 3:4	16e/LL	16c#\	.	8a\L	(8b\L
.	.	16a/	16ryy	.	.	.
.	.	16f#/	16d\	.	16a\L	8dd\)
.	.	16a/	16ryy	.	16a\J	.
8AA/	5 3	16e/	16c#\	.	8a\J	8cc#`\J
.	.	16a/JJ	16ryy	.	.	.
*	*	*v	*v	*	*	*
=64	=64	=64	=64	=64	=64
!LO:TX:a:t=P:problem=mixed beam	!	!	!	!LO:TX:a:t=1.	!LO:TX:a:t=1.
8D\L	6	16r	.	4.r	4.r
.	.	(16dd\LL	.	.	.
8E\	6 4	16cc#\	.	.	.
.	.	16b\	.	.	.
8EE/J	5 3	16a\	.	.	.
.	.	16g#\JJ)	.	.	.
=65	=65	=65	=65	=65	=65
*	*	*^	*	*	*
4AA/	5:6 3:4	16e/LL	16c#\	.	8ee\L	8cc#\L
.	.	16a/	16ryy	.	.	.
.	.	16f#/	16d\	.	8ff#\	8dd\
.	.	16a/	16ryy	.	.	.
8AA/	5 3	16e/	16c#\	.	8ee\J	8ee\J
.	.	16a/JJ	16ryy	.	.	.
*	*	*v	*v	*	*	*
!	!	!	!	!LO:LB:g=original	!LO:LB:g=original
=66	=66	=66	=66	=66	=66
8D/	6	16r	.	8dd\L	(16ff#\LL
.	.	(16ff#\LL	.	.	16dd\
8r	.	16ee\	.	16ee\L	16cc#\)
.	.	16dd\	.	16dd\	16b\
8E\	.	16cc#\	.	16cc#\	16a\
.	.	16b\JJ)	.	16b\JJ	16g#\JJ
=67	=67	=67	=67	=67	=67
8AA/L	.	16cc#\	.	8cc#\L	16a\LL
.	.	8aa\	.	.	16cc#\JJ
8BB/	7	.	.	16a\L	8dd\L
.	.	8aa\	.	16a\	.
8C#/J	6	.	.	16a\	8ee\J
.	.	[16aa\	.	16a\JJ	.
=68	=68	=68	=68	=68	=68
4D\	.	16aa\LL]	.	4a\	16ff#\LL
.	.	32gg#\L	.	.	32ee\L
.	.	32ff#\JJJ	.	.	32dd\JJJ
.	.	16ee\LL	.	.	16cc#/LL
.	.	16dd\	.	.	16b/
8r	.	16cc#\	.	8r	16a/
*	*	*custos:cc	*	*	*
.	.	16b\JJ	.	.	16g#/JJ
!	!	!LO:LB:g=original	!	!	!
=69	=69	=69	=69	=69	=69
!LO:TX:a:t=P:problem=mixed beam	!	!LO:TX:t=P:problem= problem klamry łukowej	!	!	!
8A\L	.	24cc#\LL	.	8cc#\L	8a\L
.	.	24b\	.	.	.
.	.	24a\JJ	.	.	.
8E\	6 4	8cc#\L	.	8cc#\	8cc#\
!	!	!LO:TX:a:t=t	!	!LO:TX:a:t=t	!LO:TX:a:t=t.
8EE/J	7 3	8b\J	.	8b\J	8b\J
=70	=70	=70	=70	=70	=70
.	.	.	.	.	8qqb/
4AA/	.	4a/	.	4a\	4cc#\
!LO:TX:b:t=fine.	!	!LO:TX:a:t=Fine.	!	!LO:TX:b:t=fine	!
8r	.	8r	.	8r	8r
==	==	==	==	==	==
*-	*-	*-	*-	*-	*-
!!!system-decoration: [(s1)][(s2)][(s3)]s4
!!!ENC: Berenika Jozajtis
!!!END: 2022-02-12
!!!ENC: Natalia Wrzos
!!!END: 2022-02-21
